X:1099
T:Old Copper Plate, The
R:reel
H:A more standard version is #309.
D:M\'iche\'al \'O S\'uillebh\'ain
Z:id:hn-reel-1099
M:C|
L:1/8
K:Amix
A2EA (3cBA eA | aged cAA2 | (3BAG dG eGdG | ged=c BdGB |
A2EA (3cBA eA | aged cAGB | A2 (3Bcd efge |1 aged cedB :|2 aged cAA2 ||
ageg agbg | aged cAA2 | gfef gaa2 | ged=c (3Bcd G2 |
ageg agbg | aged cAGB | A2 (3Bcd efge | aged ceA2 |
ageg a3g | aged cAA2 | gfef gbaf | ged=c (3Bcd G2 |
ageg agbg | aged cAGB | A2 (3Bcd efge | aged cedB ||

